!!!OTL: Falsch und Treu (110), S. 264
!!!id: T0273
**kern
*clefG2
*k[]
*C:
{4c
=1
2e
4g
=2
2cc
4cc
=3
2cc
4dd
=4
4dd
4cc}
=5
{4c
=6
2e
4g
=7
4cc
4b
4a
=8
4g
4b
4a
=9
2g}
=10
{4c
=11
2e
4g
=12
2cc
4cc
=13
2cc
4dd
=14
4dd
4cc}
=15
{4c
=16
2e
4g
=17
4cc
4b
4a
=18
4g
4b
4a
=19
2g}
=20
{4dd
=21
4dd
4dd
4dd
=22
4dd
4cc
4a
=23
2g
4f
=24
4f
4e}
=25
{4c
=26
2e
4g
=27
4cc
4ee
4ee
=28
4dd
4ff
4dd
=29
2cc}
=30
{4dd
=31
4dd
4dd
4dd
=32
4dd
4cc
4a
=33
2g
4f
=34
4f
4e}
=35
{4c
=36
2e
4g
=37
4cc
4ee
4ee
=38
4dd
4ff
4dd
=39
2cc}
==
*-
!!!minrhy: 4
!!!meters: 3/4 ]  ZZ[8
!!!cut: Falsch und Treu (110), S. 264
!!!reg: Luxemburg
!!!trd: Singendes Volk, Esch-Alzette 1937 posth.
!!!rhy1: X  X_X  X_X  X_X  XX
!!!rhy2: X  X_X  XXX  XXX  X_
!!!key: T0273  04  C 3/4 ]  ZZ[8
!!!mod: HEPTATONIK IONISCH]  AMBITUS[11
!!!kad: +15+153+13+1
!!!akz: 3+1+1+2_3+155_3+1+1+2_3+155_+2+254_3+1+2+1_+2+254_3+1+2+1_
!!!fot: 'a__b__a__b__c__d__c__d__
!!!for: 'a__b__a__b__c__b__c__b__
!!!fok: '/__^a_/__^a_\__^a_\__^a_
!! PHRAS[AUFTAKTIG]
!!!fkt: Liebeslieder
!!!bem: Heffingen, Anna Kimmel, 10.3.1933
!! THILL, Mathias:
!! PR[3] 2K[3] 2G[7] 3K[10] 3G[7] 4A[17] 4Ü[0] 5A[0] 6K[0] 6G[0]
!! 7K[0] 7G[0] 8A[0] MEHR[0] SI[45] ABS[29] SR[10] SP[34]
!! ST[9] 2k[10] 2g[24] 3k[7] 3g[3] 4d[0] 4ü[0] 5d[3] 6k[3] 6g[0]
!! 7k[0] 7g[0] 8d[0] mehr[0] si[52] dm[-7] sr[34] sp[17]
!! 1F[63] 2F[19] 3F[0] 4F[0] LF[0] 2P[0] 3P[0] 4P[0] TRI[0] DF[3] AB[32]
!! TF[0] U3K[0] U3[0] U4[0] U4Ü[0] U5[0] U6K[0] U6[0] U7K[0] U7[0]
!! N1[10] N2K[0] N2[0] N3K[0] N3[13] N4[0] N4Ü[0] N5[23] N6K[0] N6[17]
!!!n7k: 0] N7[13] O1[20] O2K[0] O2[3] O3K[0] O3[0] HÖ[0
